svgs/thin/telescope.svg

<svg xmlns="http://www.w3.org/2000/svg" viewBox="0 0 640 512"><!--! Font Awesome Pro 6.0.0-alpha3 by @fontawesome - https://fontawesome.com License - https://fontawesome.com/license (Commercial License) --><path d="M638.2 209.9l-81.72-195.1c-4.453-10.65-19.78-16.9-30.36-12.52l-111.8 46.01c-8.604 3.572-18.57 16.43-12.56 30.26l75.1 182.2l-64.37 22.43c-4.188 1.438-6.406 5.988-4.969 10.16c.8008 2.336 4.432 6.949 10.16 4.973l65.59-22.85c4.123 8.287 16.09 17.07 29.65 11.47l111.8-45.1C634.2 236.6 644.1 224.1 638.2 209.9zM619.5 225.3l-111.8 46.01c-2.672 1.189-8.312-1.094-9.469-3.877l-81.73-195.1c-2.189-5.109 3.203-8.92 3.938-9.225l111.8-46.01c4.391-1.83 8.572 1.709 9.469 3.877l81.7 195.9C625.2 220.5 621.7 224.4 619.5 225.3zM243.4 349.3c-1.438-4.191-6-6.428-10.16-4.973l-97.08 33.33c-4.469 1.455-8.969-.0938-10.44-3.627L86.34 278.1c-.002-.0039 .002 .0039 0 0s.002 .0039 0 0L77.95 258.7C76.5 255.2 78.59 250.8 82.77 248.8l293.5-143.6c3.969-1.939 5.609-6.738 3.672-10.71c-1.953-3.986-6.719-5.566-10.7-3.674l-293.5 143.6C64 240.1 58.48 253.5 63.17 264.8L68.5 277.7L14.41 300.1C6.203 303.5 0 312.8 0 321.7c0 2.705 .7344 6.379 1.781 8.943l19.23 46.44c3.391 8.24 12.66 14.45 21.56 14.45c2.703 0 6.375-.7344 8.938-1.783l54.08-22.41l5.314 12.84c4.645 11.22 17.91 16.95 30.41 12.63l97.08-33.33C242.6 358 244.8 353.5 243.4 349.3zM45.42 374.9c-3.062 1.221-8.438-1.109-9.625-3.971l-19.22-46.42c-1.861-4.541 1.721-8.717 3.953-9.631l54.09-22.42l24.85 60.05L45.42 374.9zM354.9 347.3c12.74-10.28 21.07-25.83 21.07-43.45c0-30.89-25.12-56.04-55.1-56.04c-30.88 0-56 25.14-56 56.04c0 17.58 8.295 33.1 20.99 43.38l-68.3 153.5C214.8 505.1 217.3 512 224 512c3.062 0 5.984-1.768 7.312-4.754l67.35-151.6C305.2 358.4 312.4 359.9 320 359.9c7.557 0 14.75-1.545 21.34-4.273l67.35 151.6C410 510.2 412.9 512 415.1 512c6.652 0 9.322-6.75 7.312-11.26L354.9 347.3zM320 343.9c-22.06 0-40-17.95-40-40.03C280 281.8 297.9 263.8 320 263.8c22.06 0 39.1 17.95 39.1 40.03C359.1 325.9 342.1 343.9 320 343.9z"/></svg>

<svg xmlns="http://www.w3.org/2000/svg" viewBox="0 0 640 512"><!-- Font Awesome Pro 6.0.0-alpha2 by @fontawesome - https://fontawesome.com License - https://fontawesome.com/license (Commercial License) --><path d="M638.248 209.893L556.529 13.936C552.076 3.287 536.748 -2.967 526.17 1.412L414.342 47.426C405.738 50.998 395.77 63.854 401.779 77.682L477.777 259.92L413.404 282.348C409.217 283.785 406.998 288.336 408.436 292.51C409.236 294.846 412.867 299.459 418.592 297.482L484.18 274.631C488.303 282.918 500.271 291.701 513.826 286.1L625.639 240.102C634.188 236.572 644.08 224.129 638.248 209.893ZM619.545 225.279L507.717 271.293C505.045 272.482 499.404 270.199 498.248 267.416L416.514 71.457C414.324 66.348 419.717 62.537 420.451 62.232L532.279 16.219C536.67 14.389 540.852 17.928 541.748 20.096L623.451 215.975C625.168 220.451 621.693 224.412 619.545 225.279ZM243.359 349.299C241.922 345.107 237.359 342.871 233.203 344.326L136.125 377.66C131.656 379.115 127.156 377.566 125.688 374.033L86.344 278.967C86.342 278.963 86.346 278.959 86.344 278.955S86.338 278.951 86.336 278.947L77.953 258.691C76.5 255.158 78.594 250.826 82.766 248.795L376.279 105.23C380.248 103.291 381.889 98.492 379.951 94.52C377.998 90.533 373.232 88.953 369.248 90.846L75.75 234.41C64 240.117 58.484 253.484 63.172 264.82L68.498 277.688L14.406 300.109C6.203 303.502 0 312.773 0 321.686C0 324.391 0.734 328.064 1.781 330.629L21.016 377.066C24.406 385.307 33.672 391.514 42.578 391.514C45.281 391.514 48.953 390.779 51.516 389.73L105.592 367.318L110.906 380.162C115.551 391.383 128.818 397.107 141.313 392.795L238.391 359.461C242.578 358.039 244.797 353.473 243.359 349.299ZM45.422 374.924C42.359 376.145 36.984 373.814 35.797 370.953L16.578 324.531C14.717 319.99 18.299 315.814 20.531 314.9L74.619 292.48L99.469 352.527L45.422 374.924ZM354.928 347.307C367.67 337.025 375.998 321.475 375.998 303.861C375.998 272.967 350.873 247.824 320 247.824C289.125 247.824 264 272.967 264 303.861C264 321.438 272.295 336.957 284.988 347.238L216.688 500.742C214.752 505.086 217.291 512 224 512C227.062 512 229.984 510.232 231.312 507.246L298.662 355.625C305.246 358.354 312.441 359.898 320 359.898C327.557 359.898 334.752 358.354 341.336 355.625L408.686 507.246C410.014 510.232 412.936 512 415.998 512C422.65 512 425.32 505.25 423.311 500.742L354.928 347.307ZM320 343.889C297.938 343.889 280 325.939 280 303.861C280 281.785 297.938 263.836 320 263.836C342.061 263.836 359.998 281.785 359.998 303.861C359.998 325.939 342.061 343.889 320 343.889Z"/></svg>
